X:53222
F:http://www.vwml.org/record/HAM/5/32/22%%VWML:HAM-5-32-22-0
T:Awake, awake, you drowsy Sleeper
S:Mrs Marina Russell, Upwey coll. HED Hammond
O:England
A:Dorset
N:Transcribed from HAM-02-233.gif
F:HAM-05-32-22.abc
Z:EFDSS;PJHeadford
M:3/2
L:1/4
Q:1/2=100
K:C
G|cB c3G|G> EDC2 c/d/&E>xx4|ecA2 GG|FF G3c|
ecG2 (FE)|CD(EF) Gc/d/|ec G3G|F/E/ "_or"CC3&xDx3||
W:Transcribed from HAM-02-233.gif - Hammond's field notes
W:The MIDI file HAM-05-32-22.mid contains two verses, the second using the alternative notes.
